X: 28850
T: My Wife's A Wanton Wee Thing
R: jig
M: 6/8
K: Amixolydian
cB|:AEA AEB|A2E cAE|GDG GDG|gec d^GB|
AEA AEB|A2E cED|CDC DB,E|1 A,B,A, A,2A:|2 A,B,A, A, cd||
efe cec|A/B/AE Aec|dBG g2e|dBG Bcd|
ece cAc|efd e2d|c/d/ec dcd|edB Acd|
efe cec|A/B/AE Aec|dBG g2e|dBG Bcd|
edc d^GB|AEA cED|CDC DB,E|A,B,A, A,2A||

